X:3
T:Mazurka  GC 5- chords
M:3/4
L:1/8
K:Cmaj%%MIDI gchordon
"C"G>C E>G c>E | "G7"G>B, D>GB2 | G>B, D>Gf2 | "C"G>C E>Ge2 | G>C E>G c>E | "G7"G>B, D>GB2 | 
G>B, D>G f>B | "C"c2c2z2 :: [K:Gmaj] "D7"AG Fe dc | "G"BD GB DB | "D7"cD FA Dc | "G"BD GB DB | 
"D7"AG Fe dc | "G"BD GB DB | "D7"cD FA DF | "G"G2G2z2 :: [K:Cmaj] "G7"dc BA GF | "C"EG cE Gc | 
"G7"DG BD GB | "C"EG cE Gc | "G7"dc BA GF | "C"EG cE Gc | "G7"DG BD GB | "C"c2c2z2 :| 

